envergo/static/images/legal_dark.svg

<svg width="134" height="134" viewBox="0 0 133 123" fill="none" xmlns="http://www.w3.org/2000/svg">
<path d="M43.0714 18C43.8692 18 44.5159 18.4477 44.5159 19C44.5159 19.5128 43.9583 19.9355 43.2398 19.9933L43.0714 20H19.9603C19.1625 20 18.5159 19.5523 18.5159 19C18.5159 18.4872 19.0734 18.0645 19.7919 18.0067L19.9603 18H43.0714Z" fill="#E1000F"/>
<path d="M57.0873 26C57.8763 26 58.5159 26.4477 58.5159 27C58.5159 27.5128 57.9644 27.9355 57.2539 27.9933L57.0873 28H19.9444C19.1554 28 18.5159 27.5523 18.5159 27C18.5159 26.4872 19.0673 26.0645 19.7779 26.0067L19.9444 26H57.0873Z" fill="#E1000F"/>
<path d="M49.5159 36C49.5159 35.4477 48.885 35 48.1068 35H19.925L19.7607 35.0067C19.0598 35.0645 18.5159 35.4872 18.5159 36C18.5159 36.5523 19.1467 37 19.925 37H48.1068L48.2711 36.9933C48.972 36.9355 49.5159 36.5128 49.5159 36Z" fill="#E1000F"/>
<path d="M57.0873 43C57.8763 43 58.5159 43.4477 58.5159 44C58.5159 44.5128 57.9644 44.9355 57.2539 44.9933L57.0873 45H19.9444C19.1554 45 18.5159 44.5523 18.5159 44C18.5159 43.4872 19.0673 43.0645 19.7779 43.0067L19.9444 43H57.0873Z" fill="#8585F6"/>
<path d="M35.5159 61C35.5159 60.4477 34.8816 60 34.0992 60H19.9325L19.7674 60.0067C19.0627 60.0645 18.5159 60.4872 18.5159 61C18.5159 61.5523 19.1501 62 19.9325 62H34.0992L34.2644 61.9933C34.969 61.9355 35.5159 61.5128 35.5159 61Z" fill="#8585F6"/>
<path d="M35.5159 53C35.5159 52.4477 34.8541 52 34.0376 52H19.9941L19.8218 52.0067C19.0865 52.0645 18.5159 52.4872 18.5159 53C18.5159 53.5523 19.1777 54 19.9941 54H34.0376L34.21 53.9933C34.9453 53.9355 35.5159 53.5128 35.5159 53Z" fill="#8585F6"/>
<path d="M36.0543 77C36.8615 77 37.5159 77.4477 37.5159 78C37.5159 78.5128 36.9517 78.9355 36.2247 78.9933L36.0543 79H19.9774C19.1702 79 18.5159 78.5523 18.5159 78C18.5159 77.4872 19.08 77.0645 19.807 77.0067L19.9774 77H36.0543Z" fill="#8585F6"/>
<path d="M36.5159 70C36.5159 69.4477 35.8712 69 35.0759 69H19.9559L19.788 69.0067C19.0717 69.0645 18.5159 69.4872 18.5159 70C18.5159 70.5523 19.1606 71 19.9559 71H35.0759L35.2438 70.9933C35.96 70.9355 36.5159 70.5128 36.5159 70Z" fill="#8585F6"/>
<path fill-rule="evenodd" clip-rule="evenodd" d="M13.0656 11.5603V85.4397H39.5159C40.22 85.4397 40.7908 86.0128 40.7908 86.7198C40.7908 87.4268 40.22 88 39.5159 88H12.2014C11.2705 88 10.5159 87.2423 10.5159 86.3075V10.6925C10.5159 9.75775 11.2705 9 12.2014 9H66.8304C67.7612 9 68.5159 9.75775 68.5159 10.6925V46.6245C68.5159 47.3315 67.9451 47.9047 67.241 47.9047C66.5369 47.9047 65.9661 47.3315 65.9661 46.6245V11.5603H13.0656Z" fill="#8585F6"/>
<path fill-rule="evenodd" clip-rule="evenodd" d="M26.0159 104C25.1888 104 24.5159 103.327 24.5159 102.5C24.5159 101.673 25.1888 101 26.0159 101C26.843 101 27.5159 101.673 27.5159 102.5C27.5159 103.327 26.843 104 26.0159 104Z" fill="#CACAFB"/>
<path fill-rule="evenodd" clip-rule="evenodd" d="M115.016 30C114.189 30 113.516 29.3271 113.516 28.5C113.516 27.6728 114.189 27 115.016 27C115.843 27 116.516 27.6728 116.516 28.5C116.516 29.3271 115.843 30 115.016 30Z" fill="#CACAFB"/>
<path fill-rule="evenodd" clip-rule="evenodd" d="M79.0159 15C78.1888 15 77.5159 14.3271 77.5159 13.5C77.5159 12.6729 78.1888 12 79.0159 12C79.843 12 80.5159 12.6729 80.5159 13.5C80.5159 14.3271 79.843 15 79.0159 15Z" fill="#CACAFB"/>
<path fill-rule="evenodd" clip-rule="evenodd" d="M66.1302 83.4627C66.3207 82.6838 67.0874 82.2115 67.843 82.4077C68.5984 82.6041 69.0565 83.3946 68.8662 84.1737C67.4549 89.9478 62.3072 94 56.2126 94C50.2755 94 45.2313 89.9665 43.575 84.2335C43.3525 83.4636 43.7775 82.6535 44.5242 82.4241C45.2709 82.1949 46.0565 82.633 46.279 83.4029C47.585 87.9238 51.5458 91.0909 56.2126 91.0909C61.0259 91.0909 65.0378 87.9328 66.1302 83.4627ZM119.737 83.4627C119.927 82.6838 120.694 82.2115 121.45 82.4077C122.205 82.6041 122.663 83.3946 122.473 84.1737C121.062 89.9478 115.914 94 109.819 94C103.882 94 98.8379 89.9665 97.1816 84.2335C96.9591 83.4636 97.3842 82.6535 98.1309 82.4241C98.8775 82.1949 99.6632 82.633 99.8856 83.4029C101.192 87.9238 105.152 91.0909 109.819 91.0909C114.633 91.0909 118.644 87.9328 119.737 83.4627ZM109.819 62C110.543 62 111.139 62.5615 111.22 63.2849L111.23 63.4545V68.6691L119.281 76.9715C119.832 77.5395 119.832 78.4605 119.281 79.0285C118.772 79.5529 117.972 79.5932 117.419 79.1495L117.286 79.0285L109.819 71.3309L102.353 79.0285C101.802 79.5965 100.908 79.5965 100.358 79.0285C99.849 78.5041 99.8099 77.6791 100.24 77.1085L100.358 76.9715L108.409 68.6676V63.4545C108.409 62.6512 109.04 62 109.819 62ZM56.2126 62C56.936 62 57.5323 62.5615 57.6138 63.2849L57.6233 63.4545V68.6691L62.9085 74.1196C63.4594 74.6877 63.4594 75.6086 62.9085 76.1767C62.3999 76.7009 61.5996 76.7414 61.0462 76.2976L60.9133 76.1767L56.2126 71.3295L48.7459 79.0285C48.195 79.5965 47.3018 79.5965 46.7509 79.0285C46.2423 78.5041 46.2032 77.6791 46.6335 77.1085L46.7509 76.9715L54.8019 68.6676V63.4545C54.8019 62.6512 55.4335 62 56.2126 62ZM65.6743 76.9715C66.2252 77.5395 66.2252 78.4605 65.6743 79.0285C65.1234 79.5965 64.2302 79.5965 63.6793 79.0285C63.1284 78.4605 63.1284 77.5395 63.6793 76.9715C64.2302 76.4035 65.1234 76.4035 65.6743 76.9715Z" fill="#E1000F"/>
<path fill-rule="evenodd" clip-rule="evenodd" d="M83.0159 34C79.8995 34 77.373 36.567 77.373 39.7333C77.373 42.3598 79.1112 44.5737 81.4824 45.2524C80.7122 49.0034 76.3447 51.8985 69.2041 53.901L68.1778 54.1776L67.1151 54.4425C66.0345 54.7015 64.9002 54.9426 63.7143 55.1656C59.6108 55.9377 55.2018 56.4354 50.7911 56.712C50.2762 56.7444 49.7734 56.7728 49.2844 56.7977L47.8599 56.8618C47.3997 56.8797 46.9545 56.8943 46.5259 56.9058L45.8914 56.9209L44.9911 56.9332L44.7621 56.9429C44.0604 57.0258 43.5159 57.6317 43.5159 58.3667C43.5159 59.1583 44.1474 59.8 44.9266 59.8L46.2634 59.7801L47.2718 59.7514L48.6846 59.6962L50.1847 59.62L50.965 59.5734C55.4814 59.29 59.9996 58.78 64.2281 57.9844C65.0372 57.8322 65.8259 57.6718 66.5936 57.5029L67.7292 57.2432C74.0341 55.7454 78.809 53.6364 81.6052 50.757V75.5667L81.6146 75.7338C81.6961 76.4467 82.2925 77 83.0159 77C83.795 77 84.4266 76.3583 84.4266 75.5667V50.757C87.2228 53.6364 91.9976 55.7454 98.3024 57.2432L99.4381 57.5029C100.206 57.6718 100.995 57.8322 101.804 57.9844C106.032 58.78 110.55 59.29 115.067 59.5734L115.847 59.62L117.347 59.6962L118.76 59.7514L119.768 59.7801L121.105 59.8C121.884 59.8 122.516 59.1583 122.516 58.3667C122.516 57.6317 121.971 57.0258 121.27 56.9429L121.041 56.9332L120.14 56.9209L119.506 56.9058C119.077 56.8943 118.632 56.8797 118.172 56.8618L116.747 56.7977C116.258 56.7728 115.756 56.7444 115.241 56.712C110.83 56.4354 106.421 55.9377 102.317 55.1656C101.132 54.9426 99.9972 54.7015 98.9166 54.4425L97.8539 54.1776L96.8276 53.901C89.6869 51.8985 85.3196 49.0034 84.5493 45.2524C86.9206 44.5737 88.6587 42.3598 88.6587 39.7333C88.6587 36.567 86.1323 34 83.0159 34ZM85.8373 39.7333C85.8373 38.1501 84.5741 36.8667 83.0159 36.8667C81.4576 36.8667 80.1944 38.1501 80.1944 39.7333C80.1944 41.3166 81.4576 42.6 83.0159 42.6C84.5741 42.6 85.8373 41.3166 85.8373 39.7333Z" fill="#8585F6"/>
<path d="M83.0159 91C83.7393 91 84.3356 91.5308 84.4171 92.2147L84.4266 92.375V99.25H98.5337C99.3129 99.25 99.9444 99.8656 99.9444 100.625C99.9444 101.33 99.3999 101.911 98.6982 101.991L98.5337 102H70.1912C69.5475 102 68.9934 102.519 68.9176 103.212L68.9087 103.375V104.75H112.641C114.895 104.75 116.737 106.467 116.866 108.633L116.873 108.875V110.25H121.105C121.884 110.25 122.516 110.866 122.516 111.625C122.516 112.33 121.971 112.911 121.27 112.991L121.105 113H95.7123C94.9332 113 94.3016 112.384 94.3016 111.625C94.3016 110.92 94.8461 110.339 95.5478 110.259L95.7123 110.25H114.052V108.875C114.052 108.17 113.507 107.589 112.805 107.509L112.641 107.5H53.3909C52.6675 107.5 52.0711 108.031 51.9896 108.715L51.9802 108.875V110.25H61.8552C62.6343 110.25 63.2659 110.866 63.2659 111.625C63.2659 112.33 62.7213 112.911 62.0196 112.991L61.8552 113H44.9266C44.1474 113 43.5159 112.384 43.5159 111.625C43.5159 110.92 44.0604 110.339 44.7621 110.259L44.9266 110.25H49.1587V108.875C49.1587 106.678 50.9206 104.882 53.1422 104.757L53.3909 104.75H66.0873V103.375C66.0873 101.192 67.7817 99.3834 69.9486 99.257L70.1912 99.25H81.6052V92.375C81.6052 91.6156 82.2367 91 83.0159 91Z" fill="#8585F6"/>
<path d="M83.0159 88C83.8443 88 84.5159 87.3284 84.5159 86.5C84.5159 85.6716 83.8443 85 83.0159 85C82.1874 85 81.5159 85.6716 81.5159 86.5C81.5159 87.3284 82.1874 88 83.0159 88Z" fill="#8585F6"/>
</svg>

<svg width="134" height="134" viewBox="0 0 133 123" fill="none" xmlns="http://www.w3.org/2000/svg"><path d="M43.071 18c.798 0 1.445.448 1.445 1 0 .513-.558.936-1.276.993l-.17.007H19.96c-.798 0-1.445-.448-1.445-1 0-.513.557-.936 1.276-.993L19.96 18h23.111zm14.016 8c.79 0 1.429.448 1.429 1 0 .513-.552.936-1.262.993l-.167.007H19.944c-.789 0-1.428-.448-1.428-1 0-.513.551-.936 1.262-.993l.166-.007h37.143zm-7.571 10c0-.552-.631-1-1.41-1h-28.18l-.164.007c-.701.058-1.245.48-1.245.993 0 .552.63 1 1.409 1h28.182l.164-.007c.701-.058 1.245-.48 1.245-.993z" fill="#E1000F"/><path d="M57.087 43c.79 0 1.429.448 1.429 1 0 .513-.552.935-1.262.993l-.167.007H19.944c-.789 0-1.428-.448-1.428-1 0-.513.551-.935 1.262-.993l.166-.007h37.143zM35.516 61c0-.552-.634-1-1.417-1H19.933l-.166.007c-.704.058-1.251.48-1.251.993 0 .552.634 1 1.417 1h14.166l.165-.007c.705-.058 1.252-.48 1.252-.993zm0-8c0-.552-.662-1-1.478-1H19.994l-.172.007c-.735.058-1.306.48-1.306.993 0 .552.662 1 1.478 1h14.044l.172-.007c.735-.058 1.306-.48 1.306-.993zm.538 24c.807 0 1.462.448 1.462 1 0 .513-.564.936-1.291.993l-.17.007H19.976c-.807 0-1.461-.448-1.461-1 0-.513.564-.936 1.291-.993l.17-.007h16.077zm.462-7c0-.552-.645-1-1.44-1h-15.12l-.168.007c-.716.057-1.272.48-1.272.993 0 .552.645 1 1.44 1h15.12l.168-.007c.716-.057 1.272-.48 1.272-.993z" fill="#8585F6"/><path fill-rule="evenodd" clip-rule="evenodd" d="M13.066 11.56v73.88h26.45c.704 0 1.275.573 1.275 1.28 0 .707-.571 1.28-1.275 1.28H12.2a1.69 1.69 0 01-1.685-1.692V10.692A1.69 1.69 0 0112.2 9h54.63c.93 0 1.685.758 1.685 1.693v35.931c0 .707-.57 1.28-1.275 1.28a1.278 1.278 0 01-1.275-1.28V11.56h-52.9z" fill="#8585F6"/><path fill-rule="evenodd" clip-rule="evenodd" d="M26.016 104c-.827 0-1.5-.673-1.5-1.5s.673-1.5 1.5-1.5 1.5.673 1.5 1.5-.673 1.5-1.5 1.5zm89-74c-.827 0-1.5-.673-1.5-1.5s.673-1.5 1.5-1.5 1.5.673 1.5 1.5-.673 1.5-1.5 1.5zm-36-15c-.827 0-1.5-.673-1.5-1.5s.673-1.5 1.5-1.5 1.5.673 1.5 1.5-.673 1.5-1.5 1.5z" fill="#CACAFB"/><path fill-rule="evenodd" clip-rule="evenodd" d="M66.13 83.463c.19-.78.957-1.251 1.713-1.055.755.196 1.213.987 1.023 1.766C67.455 89.948 62.307 94 56.213 94c-5.938 0-10.982-4.034-12.638-9.766-.223-.77.203-1.58.95-1.81.746-.23 1.532.209 1.754.979 1.306 4.52 5.267 7.688 9.934 7.688 4.813 0 8.825-3.158 9.917-7.628zm53.607 0c.19-.78.957-1.251 1.713-1.055.755.196 1.213.987 1.023 1.766-1.411 5.774-6.559 9.826-12.654 9.826-5.937 0-10.981-4.034-12.637-9.766-.223-.77.202-1.58.949-1.81.746-.23 1.532.209 1.755.979 1.306 4.52 5.266 7.688 9.933 7.688 4.814 0 8.825-3.158 9.918-7.628zM109.819 62c.724 0 1.32.562 1.401 1.285l.01.17v5.214l8.051 8.303a1.486 1.486 0 010 2.056 1.38 1.38 0 01-1.862.121l-.133-.12-7.467-7.698-7.466 7.697a1.38 1.38 0 01-1.995 0 1.488 1.488 0 01-.118-1.92l.118-.136 8.051-8.304v-5.214c0-.803.631-1.454 1.41-1.454zm-53.606 0c.723 0 1.32.562 1.4 1.285l.01.17v5.214l5.285 5.45c.551.569.551 1.49 0 2.058a1.38 1.38 0 01-1.862.12l-.133-.12-4.7-4.848-7.467 7.7a1.38 1.38 0 01-1.995 0 1.488 1.488 0 01-.117-1.92l.117-.137 8.05-8.304v-5.214c0-.803.633-1.454 1.412-1.454zm9.461 14.972a1.485 1.485 0 010 2.056 1.38 1.38 0 01-1.995 0 1.487 1.487 0 010-2.056 1.38 1.38 0 011.995 0z" fill="#E1000F"/><path fill-rule="evenodd" clip-rule="evenodd" d="M83.016 34c-3.117 0-5.643 2.567-5.643 5.733 0 2.627 1.738 4.84 4.11 5.52-.77 3.75-5.138 6.645-12.279 8.648l-1.026.277-1.063.265c-1.08.259-2.215.5-3.4.723-4.104.772-8.513 1.27-12.924 1.546-.515.032-1.018.06-1.507.086l-1.424.064c-.46.018-.905.032-1.334.044l-.635.015-.9.012-.229.01a1.426 1.426 0 00-1.246 1.424c0 .791.631 1.433 1.41 1.433l1.337-.02 1.009-.029 1.413-.055 1.5-.076.78-.047c4.516-.283 9.035-.793 13.263-1.589.81-.152 1.598-.312 2.366-.481l1.135-.26c6.305-1.498 11.08-3.607 13.876-6.486v24.81l.01.167a1.42 1.42 0 001.4 1.266c.78 0 1.412-.642 1.412-1.433v-24.81c2.796 2.88 7.57 4.988 13.875 6.486l1.136.26c.768.169 1.557.33 2.366.481 4.228.796 8.746 1.306 13.263 1.59l.78.046 1.5.076 1.413.055 1.008.03 1.337.019c.779 0 1.411-.642 1.411-1.433 0-.735-.545-1.341-1.246-1.424l-.229-.01-.901-.012-.634-.015c-.429-.012-.874-.026-1.334-.044l-1.425-.064c-.489-.025-.991-.054-1.506-.086-4.411-.277-8.82-.774-12.924-1.546a70.747 70.747 0 01-3.4-.723l-1.063-.265-1.026-.277c-7.141-2.003-11.508-4.898-12.279-8.649 2.372-.678 4.11-2.892 4.11-5.519 0-3.166-2.527-5.733-5.643-5.733zm2.821 5.733c0-1.583-1.263-2.866-2.821-2.866-1.558 0-2.822 1.283-2.822 2.866 0 1.584 1.264 2.867 2.822 2.867s2.821-1.283 2.821-2.867z" fill="#8585F6"/><path d="M83.016 91c.723 0 1.32.53 1.401 1.215l.01.16v6.875h14.107c.779 0 1.41.616 1.41 1.375 0 .705-.544 1.286-1.246 1.366l-.164.009H70.19c-.644 0-1.198.519-1.273 1.212l-.01.163v1.375h43.733c2.254 0 4.096 1.717 4.225 3.883l.007.242v1.375h4.232c.779 0 1.411.616 1.411 1.375 0 .705-.545 1.286-1.246 1.366l-.165.009H95.712c-.779 0-1.41-.616-1.41-1.375 0-.705.544-1.286 1.246-1.366l.164-.009h18.34v-1.375c0-.705-.545-1.286-1.247-1.366l-.164-.009h-59.25c-.724 0-1.32.531-1.401 1.215l-.01.16v1.375h9.875c.78 0 1.41.616 1.41 1.375 0 .705-.544 1.286-1.245 1.366l-.165.009H44.927c-.78 0-1.411-.616-1.411-1.375 0-.705.544-1.286 1.246-1.366l.165-.009h4.232v-1.375c0-2.197 1.762-3.993 3.983-4.118l.249-.007h12.696v-1.375c0-2.183 1.695-3.992 3.862-4.118l.242-.007h11.414v-6.875c0-.76.632-1.375 1.41-1.375zm0-3a1.5 1.5 0 100-3 1.5 1.5 0 000 3z" fill="#8585F6"/></svg>
